X:0103
M:6/8
L:1/8
Q:3/8=108
P:ABA % Aird uses a da capo
K:G
P:A
P:B
gdg gdg|gfe dcB|gdg gdg |ABA AFD|
gdg gdg|gfe agf|fed Ad^c|d3  D3:|

